src/img/channel/channel_54.svg

<svg fill="none" height="17" viewBox="0 0 160 17" width="160" xmlns="http://www.w3.org/2000/svg"><g fill="#fff"><path d="m13.7885 16.5365-5.21663-3.5803-8.057558 3.5803 4.775758-5.7697-5.29007-3.55457h8.2045l5.584-6.774242v6.774242h7.9351l-7.9351 3.50307z"/><path d="m23.6827 3.76071c.2939 0 .5143-.23181.5143-.5409v-2.240913c0-.309091-.2204-.540909-.5143-.540909h-8.5719v3.322722z"/><path d="m23.6827 16.5365c.2939 0 .5143-.2318.5143-.5409v-2.2667c0-.3091-.2204-.5409-.5143-.5409h-8.5719v3.3227c0 .0258 8.5719.0258 8.5719.0258z"/><path d="m37.6916.437988h-2.1797c-.2939 0-.5143.231818-.5143.540909v9.968203c0 .4121-.049.7727-.2204 1.1333-.1225.3091-.3429.5924-.5633.7727-.2204.2319-.5143.3606-.8572.4637-.3429.1288-.9306.1803-1.3225.1803s-1.0286-.0515-1.3715-.1803-.6368-.3091-.8572-.4637c-.2204-.1803-.3918-.4636-.5633-.7727-.1224-.3091-.2204-.7212-.2204-1.1333v-9.968203c0-.309091-.2204-.540909-.5143-.540909h-2.1797c-.2939 0-.5143.231818-.5143.540909v10.019703c0 .953.1714 1.7773.5143 2.4985s.8082 1.3136 1.3715 1.8288c.5633.4636 1.2735.9015 2.0083 1.1333.7347.2318 1.5429.3606 2.3511.3606s1.6164-.1288 2.3511-.3606c.7348-.2318 1.445-.6439 1.9593-1.1333.5633-.4637 1.0286-1.1334 1.3225-1.8288.3429-.7212.5144-1.5455.5144-2.4985v-10.019703c0-.309091-.2205-.540909-.5144-.540909z"/><path d="m53.0964 15.6865-3.5512-4.5591s2.8654-1.0561 2.8654-4.8682c0-.77273-.1224-1.54545-.3918-2.26666-.2205-.72122-.6368-1.36516-1.1511-1.90607-.5143-.5409-1.1021-.95303-1.7879-1.236359-.6857-.283333-1.4939-.463636-2.3511-.463636h-5.7554c-.2939 0-.5143.231818-.5143.540909v15.068216c0 .3091.2204.5409.5143.5409h2.1797c.2939 0 .5143-.2318.5143-.5409v-12.23488h3.2083c.3429 0 .6858.05151.9307.1803.2939.12879.5143.30909.7347.54091.1715.23182.3429.46364.4654.77273.1224.30909.1714.64394.1714 1.05606 0 .3606-.049.72121-.1714 1.00454-.1225.30909-.2939.59243-.4654.82424-.2204.23182-.4653.36061-.6857.46364-.2939.12879-.7348.1803-1.7144.1803h-1.3715s-.4653.23182-.2939.59243l5.0452 6.87723c.1224.1288.2204.2319.3918.2319h2.8165c.4898.103.7592-.3091.3674-.7985z"/><path d="m67.1789 2.39545c-.7347-.72121-1.5429-1.23637-2.5226-1.596973-.9796-.360606-1.9593-.540909-3.0369-.540909-1.0286 0-2.0572.180303-2.9879.540909-.9796.360603-1.8368.901513-2.5225 1.596973-.7348.72121-1.3226 1.59697-1.7144 2.60151-.3919 1.00455-.6368 2.1894-.6368 3.50303 0 1.31364.2204 2.49851.6368 3.50301.3918 1.0046.9796 1.9061 1.7144 2.6015.7347.7213 1.5429 1.2364 2.5225 1.597.9797.3606 1.9593.5409 3.0369.5409 1.1511 0 2.2287-.1803 3.2083-.5924.9797-.4121 1.8369-.953 2.5226-1.7258.6858-.7212 1.2736-1.5969 1.6654-2.6015.3919-1.0045.5633-2.13786.5633-3.37422 0-1.31364-.2204-2.49849-.6368-3.50303-.4898-.92728-1.1266-1.82879-1.8123-2.55zm-1.2735 8.37125c-.2205.5924-.5633 1.1333-.9797 1.5454-.3918.4121-.9306.7212-1.4939.953-.5633.2319-1.1511.3091-1.8369.3091-.6367 0-1.2735-.1288-1.8368-.3091-.5633-.2318-1.0286-.5409-1.445-.953-.3918-.4121-.7347-.953-.9796-1.5454-.2204-.644-.3919-1.36519-.3919-2.18944 0-.82424.1225-1.59696.3919-2.18939.2204-.64394.5633-1.13333.9796-1.54545.3919-.41212.9307-.72122 1.494-.95303.5633-.23182 1.2001-.36061 1.8368-.36061.6368 0 1.2736.12879 1.8369.36061.5633.23181 1.0286.54091 1.4449.95303.4164.41212.7348.95303.9797 1.59697.2204.64394.3918 1.36515.3918 2.18939-.049.72121-.1714 1.49392-.3918 2.13792z"/><path d="m73.8403 5.07427c0 .36061.049.54091.1714.72121.1225.1803.3429.36061.5633.54091.2939.12879.5633.23182.9797.36061.3918.12878.8082.1803 1.2.23181.7347.12879 1.494.3091 2.1797.46364.7347.1803 1.3715.46364 1.9593.82424.5878.36061 1.0286.90152 1.3225 1.49394.3429.64397.4653 1.41667.4653 2.36967-.0489.9015-.2938 1.7258-.6857 2.3182s-.9307 1.1333-1.5429 1.494c-.6123.3606-1.2001.6439-1.9593.7727s-1.543.1803-2.2287.1803c-1.7878-.0515-4.3594-1.1334-5.6819-2.9621-.1225-.1803-.2204-.4122.049-.7213.2939-.309 1.6164-1.7257 1.6164-1.7257.2939-.3091.5143-.0515.6367.0515.7348 1.1849 2.3022 2.0091 3.5023 2.0864.6367 0 .6857 0 1.102-.0515.3429-.0516.6858-.1288.9797-.3091.2939-.1288.5143-.3091.6857-.5409.1715-.2319.2939-.541.2939-.9016s-.049-.6439-.2204-.8242c-.1714-.2318-.3918-.4121-.6857-.5924s-.6858-.3091-1.1021-.36063c-.3919-.05152-.8572-.18031-1.2736-.23182-.6857-.12879-1.3715-.23182-2.0082-.41212-.6858-.18031-1.2736-.46364-1.7879-.82425-.5143-.3606-.9796-.82424-1.2735-1.41666-.3429-.59243-.4653-1.23637-.4653-2.13788.0489-.82424.2204-1.59697.6367-2.26667.3429-.59242.8572-1.13333 1.445-1.54545.5633-.360608 1.2001-.643941 1.9593-.824244 1.3715-.3606064 2.8164-.3090913 4.1879.180303 1.494.463636 2.6941 1.674241 3.2818 2.498481.1225.18031.2205.41212 0 .64394l-1.5429 1.59697c-.2939.30909-.5633.23182-.7347-.05151-.8082-1.23637-1.8368-1.77728-3.0369-1.82879-1.445-.02576-2.9389.28333-2.9879 1.7z"/><path d="m95.662 4.06968c-.2204-.72121-.6368-1.36515-1.1511-1.90606s-1.1021-.95303-1.7878-1.236361c-.6858-.309091-1.494-.463636-2.3512-.463636h-5.8044c-.2939 0-.5143.231818-.5143.540907v15.06817c0 .3091.2204.5409.5143.5409h2.1797c.2939 0 .5143-.2318.5143-.5409v-3.8636h3.1104c.8572 0 1.6654-.1803 2.3512-.4637.6857-.2833 1.2735-.7212 1.7878-1.2363.5143-.51517.8572-1.13336 1.1511-1.82881.2204-.72121.3918-1.54545.3918-2.31818-.0489-.87576-.1469-1.59697-.3918-2.29243zm-3.0369 3.27122c-.1225.30909-.2939.59242-.4653.82424-.2205.23182-.4654.3606-.6858.46363-.2939.12879-.7347.18031-1.7144.18031h-2.4736v-5.04849h3.2084c.3428 0 .6857.05152.9306.18031.2939.12878.5143.30909.7348.5409.1714.23182.3428.46364.4653.77273.1224.30909.1714.64394.1714 1.05606 0 .36061-.049.72122-.1714 1.03031z"/><path d="m110.602 2.39545c-.735-.72121-1.543-1.23637-2.523-1.596973-.979-.360606-1.959-.540909-3.037-.540909-1.028 0-2.057.180303-2.988.540909-.979.360603-1.836.901513-2.5222 1.596973-.7347.72121-1.3225 1.59697-1.7144 2.60151-.3918 1.00455-.6367 2.1894-.6367 3.50303 0 1.31364.2204 2.49851.6367 3.50301.4164 1.0046.9797 1.9061 1.7144 2.6015.7352.7213 1.5432 1.2364 2.5222 1.597.98.3606 1.96.5409 3.037.5409 1.151 0 2.229-.1803 3.209-.5924.979-.4121 1.836-.953 2.522-1.7258.686-.7212 1.274-1.5969 1.666-2.6015.391-1.0045.563-2.13786.563-3.37422 0-1.31364-.221-2.49849-.637-3.50303-.49-.92728-1.053-1.82879-1.812-2.55zm-1.249 8.37125c-.221.5924-.564 1.1333-.98 1.5454-.392.4121-.931.7212-1.494.953-.563.2319-1.151.3091-1.837.3091-.636 0-1.273-.1288-1.837-.3091-.563-.2318-1.028-.5409-1.445-.953-.391-.4121-.734-.953-.979-1.5454-.221-.644-.392-1.36519-.392-2.18944 0-.82424.122-1.59696.392-2.18939.22-.64394.563-1.13333.979-1.54545.392-.41212.931-.72122 1.494-.95303.564-.23182 1.201-.36061 1.837-.36061.637 0 1.274.12879 1.837.36061.563.23181 1.029.54091 1.445.95303.392.41212.735.95303.98 1.59697.22.64394.392 1.36515.392 2.18939 0 .72121-.172 1.49392-.392 2.13792z"/><path d="m127.158 15.6865-3.552-4.5591s2.866-1.0561 2.866-4.8682c0-.77273-.123-1.54545-.392-2.26666-.22-.72122-.637-1.36516-1.151-1.90607-.514-.5409-1.102-.95303-1.788-1.236359-.686-.309091-1.494-.463636-2.351-.463636h-5.804c-.294 0-.515.231818-.515.540909v15.068216c0 .3091.221.5409.515.5409h2.179c.294 0 .515-.2318.515-.5409v-12.2864h3.208c.343 0 .686.05152.931.1803.293.12879.514.3091.734.54091.172.23182.343.46364.466.77273.122.30909.171.64394.171 1.05606 0 .36061-.049.72121-.171 1.00455-.123.30909-.294.59242-.466.82424-.22.23182-.465.36061-.686.46364-.293.12878-.734.1803-1.714.1803h-1.371c-.294 0-.466.23182-.294.59242l5.045 6.90305c.122.1288.22.2318.392.2318h2.816c.539.1288.759-.2833.417-.7727z"/><path d="m138.129.437988h-10.629c-.294 0-.514.231818-.514.540909v2.266663c0 .3091.22.54091.514.54091h3.723v12.28633c0 .3091.22.5409.514.5409h2.18c.294 0 .514-.2318.514-.5409v-12.31208h3.723c.294 0 .514-.23182.514-.54091v-2.240913c-.024-.309091-.245-.540909-.539-.540909z"/></g><path d="m144.571 0h15.429v17h-15.429z" fill="#d30132"/><path d="m149.812 2.42114v2.47273h1.861v9.42723h2.424v-9.42723-2.47273h-2.424z" fill="#fff"/></svg>

<svg width="160" height="17" viewBox="0 0 160 17" fill="none" xmlns="http://www.w3.org/2000/svg">
<path d="M13.7885 16.5365L8.57187 12.9562L0.514312 16.5365L5.29007 10.7668L0 7.21223H8.2045L13.7885 0.437988V7.21223H21.7236L13.7885 10.7153V16.5365Z" fill="white"/>
<path d="M23.6827 3.76071C23.9766 3.76071 24.197 3.5289 24.197 3.21981V0.978897C24.197 0.669806 23.9766 0.437988 23.6827 0.437988H15.1108V3.76071H23.6827Z" fill="white"/>
<path d="M23.6827 16.5365C23.9766 16.5365 24.197 16.3047 24.197 15.9956V13.7289C24.197 13.4198 23.9766 13.188 23.6827 13.188H15.1108V16.5107C15.1108 16.5365 23.6827 16.5365 23.6827 16.5365Z" fill="white"/>
<path d="M37.6916 0.437988H35.5119C35.218 0.437988 34.9976 0.669806 34.9976 0.978897V10.9471C34.9976 11.3592 34.9486 11.7198 34.7772 12.0804C34.6547 12.3895 34.4343 12.6728 34.2139 12.8531C33.9935 13.085 33.6996 13.2137 33.3567 13.3168C33.0138 13.4456 32.4261 13.4971 32.0342 13.4971C31.6423 13.4971 31.0056 13.4456 30.6627 13.3168C30.3198 13.188 30.0259 13.0077 29.8055 12.8531C29.5851 12.6728 29.4137 12.3895 29.2422 12.0804C29.1198 11.7713 29.0218 11.3592 29.0218 10.9471V0.978897C29.0218 0.669806 28.8014 0.437988 28.5075 0.437988H26.3278C26.0339 0.437988 25.8135 0.669806 25.8135 0.978897V10.9986C25.8135 11.9516 25.9849 12.7759 26.3278 13.4971C26.6707 14.2183 27.136 14.8107 27.6993 15.3259C28.2626 15.7895 28.9728 16.2274 29.7076 16.4592C30.4423 16.691 31.2505 16.8198 32.0587 16.8198C32.8669 16.8198 33.6751 16.691 34.4098 16.4592C35.1446 16.2274 35.8548 15.8153 36.3691 15.3259C36.9324 14.8622 37.3977 14.1925 37.6916 13.4971C38.0345 12.7759 38.206 11.9516 38.206 10.9986V0.978897C38.206 0.669806 37.9855 0.437988 37.6916 0.437988Z" fill="white"/>
<path d="M53.0964 15.6865L49.5452 11.1274C49.5452 11.1274 52.4106 10.0713 52.4106 6.2592C52.4106 5.48647 52.2882 4.71375 52.0188 3.99254C51.7983 3.27132 51.382 2.62738 50.8677 2.08647C50.3534 1.54557 49.7656 1.13344 49.0798 0.850111C48.3941 0.566778 47.5859 0.386475 46.7287 0.386475H40.9733C40.6794 0.386475 40.459 0.618293 40.459 0.927384V15.9956C40.459 16.3047 40.6794 16.5365 40.9733 16.5365H43.153C43.4469 16.5365 43.6673 16.3047 43.6673 15.9956V3.76072H46.8756C47.2185 3.76072 47.5614 3.81223 47.8063 3.94102C48.1002 4.06981 48.3206 4.25011 48.541 4.48193C48.7125 4.71375 48.8839 4.94557 49.0064 5.25466C49.1288 5.56375 49.1778 5.8986 49.1778 6.31072C49.1778 6.67132 49.1288 7.03193 49.0064 7.31526C48.8839 7.62435 48.7125 7.90769 48.541 8.1395C48.3206 8.37132 48.0757 8.50011 47.8553 8.60314C47.5614 8.73193 47.1205 8.78344 46.1409 8.78344H44.7694C44.7694 8.78344 44.3041 9.01526 44.4755 9.37587L49.5207 16.2531C49.6431 16.3819 49.7411 16.485 49.9125 16.485H52.729C53.2188 16.588 53.4882 16.1759 53.0964 15.6865Z" fill="white"/>
<path d="M67.1789 2.39545C66.4442 1.67424 65.636 1.15908 64.6563 0.798477C63.6767 0.437871 62.697 0.257568 61.6194 0.257568C60.5908 0.257568 59.5622 0.437871 58.6315 0.798477C57.6519 1.15908 56.7947 1.69999 56.109 2.39545C55.3742 3.11666 54.7864 3.99242 54.3946 4.99696C54.0027 6.00151 53.7578 7.18636 53.7578 8.49999C53.7578 9.81363 53.9782 10.9985 54.3946 12.003C54.7864 13.0076 55.3742 13.9091 56.109 14.6045C56.8437 15.3258 57.6519 15.8409 58.6315 16.2015C59.6112 16.5621 60.5908 16.7424 61.6684 16.7424C62.8195 16.7424 63.8971 16.5621 64.8767 16.15C65.8564 15.7379 66.7136 15.197 67.3993 14.4242C68.0851 13.703 68.6729 12.8273 69.0647 11.8227C69.4566 10.8182 69.628 9.68484 69.628 8.44848C69.628 7.13484 69.4076 5.94999 68.9912 4.94545C68.5014 4.01817 67.8646 3.11666 67.1789 2.39545ZM65.9054 10.7667C65.6849 11.3591 65.3421 11.9 64.9257 12.3121C64.5339 12.7242 63.9951 13.0333 63.4318 13.2651C62.8685 13.497 62.2807 13.5742 61.5949 13.5742C60.9582 13.5742 60.3214 13.4454 59.7581 13.2651C59.1948 13.0333 58.7295 12.7242 58.3131 12.3121C57.9213 11.9 57.5784 11.3591 57.3335 10.7667C57.1131 10.1227 56.9416 9.40151 56.9416 8.57726C56.9416 7.75302 57.0641 6.9803 57.3335 6.38787C57.5539 5.74393 57.8968 5.25454 58.3131 4.84242C58.705 4.4303 59.2438 4.1212 59.8071 3.88939C60.3704 3.65757 61.0072 3.52878 61.6439 3.52878C62.2807 3.52878 62.9175 3.65757 63.4808 3.88939C64.0441 4.1212 64.5094 4.4303 64.9257 4.84242C65.3421 5.25454 65.6605 5.79545 65.9054 6.43939C66.1258 7.08333 66.2972 7.80454 66.2972 8.62878C66.2482 9.34999 66.1258 10.1227 65.9054 10.7667Z" fill="white"/>
<path d="M73.8403 5.07427C73.8403 5.43488 73.8893 5.61518 74.0117 5.79548C74.1342 5.97578 74.3546 6.15609 74.575 6.33639C74.8689 6.46518 75.1383 6.56821 75.5547 6.697C75.9465 6.82578 76.3629 6.8773 76.7547 6.92881C77.4894 7.0576 78.2487 7.23791 78.9344 7.39245C79.6691 7.57275 80.3059 7.85609 80.8937 8.21669C81.4815 8.5773 81.9223 9.11821 82.2162 9.71063C82.5591 10.3546 82.6815 11.1273 82.6815 12.0803C82.6326 12.9818 82.3877 13.8061 81.9958 14.3985C81.6039 14.9909 81.0651 15.5318 80.4529 15.8925C79.8406 16.2531 79.2528 16.5364 78.4936 16.6652C77.7344 16.794 76.9506 16.8455 76.2649 16.8455C74.4771 16.794 71.9055 15.7121 70.583 13.8834C70.4605 13.7031 70.3626 13.4712 70.632 13.1621C70.9259 12.8531 72.2484 11.4364 72.2484 11.4364C72.5423 11.1273 72.7627 11.3849 72.8851 11.4879C73.6199 12.6728 75.1873 13.497 76.3874 13.5743C77.0241 13.5743 77.0731 13.5743 77.4894 13.5228C77.8323 13.4712 78.1752 13.394 78.4691 13.2137C78.763 13.0849 78.9834 12.9046 79.1548 12.6728C79.3263 12.4409 79.4487 12.1318 79.4487 11.7712C79.4487 11.4106 79.3997 11.1273 79.2283 10.947C79.0569 10.7152 78.8365 10.5349 78.5426 10.3546C78.2487 10.1743 77.8568 10.0455 77.4405 9.99397C77.0486 9.94245 76.5833 9.81366 76.1669 9.76215C75.4812 9.63336 74.7954 9.53033 74.1587 9.35003C73.4729 9.16972 72.8851 8.88639 72.3708 8.52578C71.8565 8.16518 71.3912 7.70154 71.0973 7.10912C70.7544 6.51669 70.632 5.87275 70.632 4.97124C70.6809 4.147 70.8524 3.37427 71.2687 2.70457C71.6116 2.11215 72.1259 1.57124 72.7137 1.15912C73.277 0.798512 73.9138 0.515179 74.673 0.334876C76.0445 -0.0257304 77.4894 0.0257847 78.8609 0.515179C80.3549 0.978815 81.555 2.18942 82.1427 3.01366C82.2652 3.19397 82.3632 3.42578 82.1427 3.6576L80.5998 5.25457C80.3059 5.56366 80.0365 5.48639 79.8651 5.20306C79.0569 3.96669 78.0283 3.42578 76.8282 3.37427C75.3832 3.34851 73.8893 3.6576 73.8403 5.07427Z" fill="white"/>
<path d="M95.662 4.06968C95.4416 3.34847 95.0252 2.70453 94.5109 2.16362C93.9966 1.62271 93.4088 1.21059 92.7231 0.927259C92.0373 0.618168 91.2291 0.463623 90.3719 0.463623H84.5675C84.2736 0.463623 84.0532 0.695441 84.0532 1.00453V16.0727C84.0532 16.3818 84.2736 16.6136 84.5675 16.6136H86.7472C87.0411 16.6136 87.2615 16.3818 87.2615 16.0727V12.2091H90.3719C91.2291 12.2091 92.0373 12.0288 92.7231 11.7454C93.4088 11.4621 93.9966 11.0242 94.5109 10.5091C95.0252 9.99393 95.3681 9.37574 95.662 8.68029C95.8824 7.95908 96.0538 7.13484 96.0538 6.36211C96.0049 5.48635 95.9069 4.76514 95.662 4.06968ZM92.6251 7.3409C92.5026 7.64999 92.3312 7.93332 92.1598 8.16514C91.9393 8.39696 91.6944 8.52574 91.474 8.62877C91.1801 8.75756 90.7393 8.80908 89.7596 8.80908H87.286V3.76059H90.4944C90.8372 3.76059 91.1801 3.81211 91.425 3.9409C91.7189 4.06968 91.9393 4.24999 92.1598 4.4818C92.3312 4.71362 92.5026 4.94544 92.6251 5.25453C92.7475 5.56362 92.7965 5.89847 92.7965 6.31059C92.7965 6.6712 92.7475 7.03181 92.6251 7.3409Z" fill="white"/>
<path d="M110.602 2.39545C109.867 1.67424 109.059 1.15908 108.079 0.798477C107.1 0.437871 106.12 0.257568 105.042 0.257568C104.014 0.257568 102.985 0.437871 102.054 0.798477C101.075 1.15908 100.218 1.69999 99.5318 2.39545C98.7971 3.11666 98.2093 3.99242 97.8174 4.99696C97.4256 6.00151 97.1807 7.18636 97.1807 8.49999C97.1807 9.81363 97.4011 10.9985 97.8174 12.003C98.2338 13.0076 98.7971 13.9091 99.5318 14.6045C100.267 15.3258 101.075 15.8409 102.054 16.2015C103.034 16.5621 104.014 16.7424 105.091 16.7424C106.242 16.7424 107.32 16.5621 108.3 16.15C109.279 15.7379 110.136 15.197 110.822 14.4242C111.508 13.703 112.096 12.8273 112.488 11.8227C112.879 10.8182 113.051 9.68484 113.051 8.44848C113.051 7.13484 112.83 5.94999 112.414 4.94545C111.924 4.01817 111.361 3.11666 110.602 2.39545ZM109.353 10.7667C109.132 11.3591 108.789 11.9 108.373 12.3121C107.981 12.7242 107.442 13.0333 106.879 13.2651C106.316 13.497 105.728 13.5742 105.042 13.5742C104.406 13.5742 103.769 13.4454 103.205 13.2651C102.642 13.0333 102.177 12.7242 101.76 12.3121C101.369 11.9 101.026 11.3591 100.781 10.7667C100.56 10.1227 100.389 9.40151 100.389 8.57726C100.389 7.75302 100.511 6.9803 100.781 6.38787C101.001 5.74393 101.344 5.25454 101.76 4.84242C102.152 4.4303 102.691 4.1212 103.254 3.88939C103.818 3.65757 104.455 3.52878 105.091 3.52878C105.728 3.52878 106.365 3.65757 106.928 3.88939C107.491 4.1212 107.957 4.4303 108.373 4.84242C108.765 5.25454 109.108 5.79545 109.353 6.43939C109.573 7.08333 109.745 7.80454 109.745 8.62878C109.745 9.34999 109.573 10.1227 109.353 10.7667Z" fill="white"/>
<path d="M127.158 15.6865L123.606 11.1274C123.606 11.1274 126.472 10.0713 126.472 6.2592C126.472 5.48647 126.349 4.71375 126.08 3.99254C125.86 3.27132 125.443 2.62738 124.929 2.08647C124.415 1.54557 123.827 1.13344 123.141 0.850111C122.455 0.54102 121.647 0.386475 120.79 0.386475H114.986C114.692 0.386475 114.471 0.618293 114.471 0.927384V15.9956C114.471 16.3047 114.692 16.5365 114.986 16.5365H117.165C117.459 16.5365 117.68 16.3047 117.68 15.9956V3.7092H120.888C121.231 3.7092 121.574 3.76072 121.819 3.8895C122.112 4.01829 122.333 4.1986 122.553 4.43041C122.725 4.66223 122.896 4.89405 123.019 5.20314C123.141 5.51223 123.19 5.84708 123.19 6.2592C123.19 6.61981 123.141 6.98041 123.019 7.26375C122.896 7.57284 122.725 7.85617 122.553 8.08799C122.333 8.31981 122.088 8.4486 121.867 8.55163C121.574 8.68041 121.133 8.73193 120.153 8.73193H118.782C118.488 8.73193 118.316 8.96375 118.488 9.32435L123.533 16.2274C123.655 16.3562 123.753 16.4592 123.925 16.4592H126.741C127.28 16.588 127.5 16.1759 127.158 15.6865Z" fill="white"/>
<path d="M138.129 0.437988H127.5C127.206 0.437988 126.986 0.669806 126.986 0.978897V3.24556C126.986 3.55466 127.206 3.78647 127.5 3.78647H131.223V16.0728C131.223 16.3819 131.443 16.6137 131.737 16.6137H133.917C134.211 16.6137 134.431 16.3819 134.431 16.0728V3.76072H138.154C138.448 3.76072 138.668 3.5289 138.668 3.21981V0.978897C138.644 0.669806 138.423 0.437988 138.129 0.437988Z" fill="white"/>
<path d="M144.571 0H160V17H144.571V0Z" fill="#D30132"/>
<path d="M149.812 2.42114V4.89387H151.673V14.3211H154.097V4.89387V2.42114H151.673H149.812Z" fill="white"/>
</svg>
